X: 37
T: la Nouvelle Hambourgh
%%VWML:Thompsons1774-3047-p19-0
F:http://www.vwml.org/record/Thompsons1774/3047/p19
M: 2/4
L: 1/8
Z: 2011 John Chambers <jc:trillian.mit.edu>
B: Charles & Samuel Thompson eds "Twenty Four Country Dances", London 1774, p.19 #1 
K: D
%-------------------------
|: DFAd | fage | cA d/c/d/e/ | d2d2 | AGFE | DFAd | fage | d2d2 :|
|: ecAd | fdAf | gfed | cB/c/ A2 | ecAd | fdAg | fe/d/ ed/c/ | d2d2 :|
K: Dm
|: FEDE | FGAd | AGFE | FED^C | FEDE | FGAd | ^cde^c | d2d2 :|
|: fedf | gfeg | fd^cd | e^cA2 | FEDE | FGAd | ^cdeg | e^cd2 :|
% - - - - - - - - Dance description - - - - - - - -
%%begintext align
%% Cast off 1 Cu. & turn .|. lead thro' the bottom & cast up :|. hands 
%% 6 round .|: lead thro' the top & cast off :|: set corners & turn .|:. :|:. 
%% lead out sides .|:: :|::
%%endtext
T: Portsmouth Review 
R: reel
M: C
L: 1/8
Z: 2011 John Chambers <jc:trillian.mit.edu>
B: Charles & Samuel Thompson eds "Twenty Four Country Dances", London 1774, p.19 #2 
K: D
%-------------------------
A |\
d2AF GEcA | Bgec d/c/d/e/ dA |\
d2AF GEcd | cBA^G A3 :|
|: A |\
e2cA eAfA | fa {g}fe/d/ e/d/c/B/ A>A |\ e2cA Bbag | fe/d/ ed/c/ d3 :|
% - - - - - - - - Dance description - - - - - - - - 
%%begintext align
%% Half right & Left .|. & back again :|. 
%% cast off hands 4 with the 3d Cu. .|: 
%% Right & Left at top :|:
%%endtext
